X: 40213
T: Tinker's Stick, The
R: reel
M: 4/4
K: Gmajor
B3G AGEG|DGBG AGEG|B3A G3B|dBAc BGGA|
g3f g2dg|egdg egde|g3f gedg|eaa2 agef||

